X: 215
T: Jieme guandeng
%%abc-version 2.0
%%abcx-abcm2ps-target-version 5.9.1 (29 Sep 2008)
%%abc-creator hum2abc beta
%%abcx-conversion-date 2013/10/02 07:52:29
%%abc-edited-by Helmut Schaffrath
%%humdrum-veritas 1025766465
%%humdrum-veritas-data 3517550023
%%continueall 1
%%barnumbers 0
L: 1/8
M: 2/4
K: D
d F A3/ B/ [I:setbarnb 1]| 
d c/ B/F2 | 
f f/ e/ f/ a/ f/ e/ | 
d c/ B/F2 | 
d A/ B/ d d | 
A B/ d/ B B/ A/ | 
F F/ E< F E/ | 
D2z f | 
e f B e | 
d2f c/ B/ | 
A2B A/ F/ | 
E2A B | 
d3f | 
e f B e | 
d d A A/ A/ | 
B2F F/ F/ | 
ED3 |]  



